X: 26174
T: McKenna's
R: reel
M: 4/4
K: Amixolydian
ag|:eAA/A/A cAeA|cc/d/ef gfec|dGG/G/G BGdG|Bdef gbag|
eAA/A/A cAeA|cdef g2fg|aged edBA|1 GABG A2gf:|2 GABG A2cd||
|:eaa/a/a baa/a/a|baaf gedB|dgg/g/g agg/g/g|baaf gedg|
eaa/a/a baa/a/a|baaf g2fg|aged edBA|1 GABG A2Bd:|2 GABG A4||

